X:1
T:Preciosa
T:Wanderlied
T:Carl Maria von Weber
T:Pius Alexander Wolff
T:Wanderlied
T:Chor aus der Schauspielmusik zu Preciosa
T:CPDL   —   Creative Commons Attribution Non Commercial 3.0
C:Carl Maria von Weber
Z:Pius Alexander Wolff
Z:CPDL   —   Creative Commons Attribution Non Commercial 3.0
%%score [ 1 2 3 4 ]
L:1/8
Q:1/4=80
M:4/4
K:D
V:1 treble nm="Sopran"
V:2 treble nm="Alt" snm="A"
V:3 treble-8 nm="Tenor" snm="T"
V:4 bass nm="Bass"
V:1
"^Mäßig" z z2 | z4 z!f! A c>e | f4 z2 A2 | G2 G>G F2 A>A | c4 z4 | z4 z2!f!"^poco" D2 | %6
w: |1. mit ih- rer|Pracht er-|füllt sie die Ber- ge, das|Tal.|o|
w: |2. die Welt ent-|lang wir|fra- gen wo- her nicht, wo-|hin?|von|
w: |3. führt uns ein|Stern! auf|ihn nur ge- rich- tet den|Blick!|dir|
"^cresc." G3 B d z!f! d2 | d2 FF (A2 E>)E | F6 !fermata!z |] %9
w: Wal- des- duft! o|gol- de- ner Son- * nen-|strahl!|
w: Ort zu Ort mit|frei- em, mit fröh- li- chem|Sinn.|
w: fol- gen wir! und|kei- ner bleibt, kei- ner zu-|rück!|
V:2
 z z2 | z4 z!f! A A>A | A4 z2 D2 | C2 E>E D2 A,>A | A4 z4 | z4 z2!f!"^poco" D2 | %6
"^cresc." B,3 D G z!f! G2 | F2 DD C2- C>C | D6 !fermata!z |] %9
V:3
!f! DF>G | A4 z A A>c | d4 z2 D2 | E2 A>A A2 d>d | e4 z4 | z4 z2"^poco"!f! D2 | %6
w: 1. Die Sonn' er-|wacht; mit ih- rer|Pracht er-|füllt sie die Ber- ge, das|Tal.|o|
w: 2. Mit Sing und|Sang die Welt ent-|lang wir|fra- gen wo- her nicht, wo-|hin?|von|
w: 3. In Nah und|Fern führt uns ein|Stern! auf|ihn nur ge- rich- tet den|Blick!|dir|
"^cresc." D3 G B z!f! B2 | A2 AE (E2 G>)G | F6 !fermata!z |] %9
w: Wal- des- duft! o|gol- de- ner Son- * nen-|strahl!|
w: Ort zu Ort mit|frei- em, mit fröh- li- chem|Sinn.|
w: fol- gen wir! und|kei- ner bleibt, kei- ner zu-|rück!|
V:4
!f! D,F,>G, | A,4 z A, A,>A, | D,4 z2 D,2 | A,,2 C,>C, D,2 F,>F, | A,4 z2!f!"^poco" A,,2 | %5
w: ||||* O|
w: ||||* Es|
w: ||||* O|
 D,3 F, A, z D,2 |"^cresc." G,,3 G, G, z!f! G,2 | A,2 A,,A,, A,,2- A,,>A,, | D,6 !fermata!z |] %9
w: Mor- gen- luft, *||||
w: treibt uns fort *||||
w: Frei- heit, dir, *||||

